X:124
T:Out on the Ocean
M:6/8
R:jig
C:Traditional
K:G
DB/B/B BAG | BdB (A/B/A)A | GED ({^F}G2)A | BB/B/B AGE |
DB/B/B BAG | BdB (A/B/A)A | GED ({^F}G2)A |[1 BGF GEE :|[2 BGF GBd |
({d}e)e/e/e edB | (e/f/e)e edB | ({^c}d)d/d/d dBA | ({^c}d)d/d/d dBA |
G2A B2d | (e/f/e)e dBA | GED ({F}G2)A | BGF GBd |
({d}e)e/e/e edB | (e/f/e)e edB | ({^c}d)d/d/d def | gfe dBA |
G2A B2d | (e/f/e)e dBA | GED ({F}G2)A | BGF GEE |]

